include/LD/assets/icons/custom/custom36.svg

<?xml version="1.0"?><svg xmlns="http://www.w3.org/2000/svg" width="100" height="100" viewBox="0 0 100 100"><g fill="#fff"><path d="m38.7 72h-4.1c-0.7 0-1.4 0.4-1.7 1l-1.4 2.4c-0.8 1.4-0.5 3.2 0.8 4.1 0.5 0.4 1.1 0.5 1.7 0.5 1 0 2-0.5 2.6-1.5l3-5c0.4-0.7-0.1-1.5-0.9-1.5z m28.4 1c-0.4-0.6-1-1-1.7-1h-4.1c-0.8 0-1.3 0.8-0.9 1.5l3 5c0.6 1 1.6 1.5 2.6 1.5 0.6 0 1.2-0.2 1.7-0.5 1.3-0.9 1.6-2.8 0.8-4.1l-1.4-2.4z m-0.1-53h-34c-3.3 0-6 2.7-6 6v34c0 3.3 2.7 6 6 6h34c3.3 0 6-2.7 6-6v-34c0-3.3-2.7-6-6-6z m-31 42c-1.7 0-3-1.3-3-3s1.3-3 3-3 3 1.3 3 3-1.3 3-3 3z m28 0c-1.7 0-3-1.3-3-3s1.3-3 3-3 3 1.3 3 3-1.3 3-3 3z m3-12c0 1.1-0.9 2-2 2h-30c-1.1 0-2-0.9-2-2v-20c0-1.1 0.9-2 2-2h30c1.1 0 2 0.9 2 2v20z"></path></g></svg>

<svg xmlns="http://www.w3.org/2000/svg" x="0px" y="0px"
	 width="100px" height="100px" viewBox="0 0 100 100" enable-background="new 0 0 100 100" xml:space="preserve">
<g>
	<path fill="#FFFFFF" d="M38.7,72h-4.1c-0.7,0-1.4,0.4-1.7,1l-1.4,2.4C30.7,76.8,31,78.6,32.3,79.5c0.5,0.4,1.1,0.5,1.7,0.5
		c1,0,2-0.5,2.6-1.5l3-5C40,72.8,39.5,72,38.7,72z"/>
	<path fill="#FFFFFF" d="M67.1,73c-0.399-0.6-1-1-1.699-1H61.3c-0.8,0-1.3,0.8-0.899,1.5l3,5C64,79.5,65,80,66,80
		c0.6,0,1.2-0.2,1.7-0.5c1.3-0.9,1.6-2.8,0.8-4.1L67.1,73z"/>
	<path fill="#FFFFFF" d="M67,20H33c-3.3,0-6,2.7-6,6v34c0,3.3,2.7,6,6,6h34c3.3,0,6-2.7,6-6V26C73,22.7,70.3,20,67,20z M36,62
		c-1.7,0-3-1.3-3-3s1.3-3,3-3s3,1.3,3,3S37.7,62,36,62z M64,62c-1.7,0-3-1.3-3-3s1.3-3,3-3s3,1.3,3,3S65.7,62,64,62z M67,50
		c0,1.1-0.9,2-2,2H35c-1.1,0-2-0.9-2-2V30c0-1.1,0.9-2,2-2h30c1.1,0,2,0.9,2,2V50z"/>
</g>
</svg>
